images/coins/OMG.svg

<svg xmlns="http://www.w3.org/2000/svg" width="227" height="227" viewBox="0 0 227 227"><path d="M54.937 117.157c-30.304 0-54.87 24.589-54.87 54.921C.067 202.411 24.636 227 54.94 227c30.308 0 54.874-24.589 54.874-54.922 0-30.332-24.566-54.921-54.874-54.921h-.003zm0 93.23c-21.126 0-38.254-17.143-38.254-38.289s17.128-38.289 38.254-38.289c21.13 0 38.257 17.144 38.257 38.289-.036 21.13-17.144 38.253-38.257 38.289zM172.126 0c-30.304 0-54.873 24.59-54.873 54.922s24.569 54.921 54.873 54.921c30.308 0 54.874-24.589 54.874-54.921C227 24.589 202.434 0 172.126 0zm0 93.229c-21.126 0-38.253-17.143-38.253-38.288 0-21.146 17.127-38.289 38.253-38.289 21.13 0 38.257 17.143 38.257 38.289-.035 21.13-17.143 38.253-38.257 38.288zM54.937 0C28.814-.016 6.296 18.398 1.101 44.026c-5.193 25.624 8.378 51.364 32.443 61.54 24.066 10.173 51.964 1.964 66.695-19.631 14.736-21.595 12.225-50.587-6.002-69.322h15.561V0H54.937zm38.257 54.922c0 21.146-17.127 38.288-38.257 38.288-21.126 0-38.254-17.142-38.254-38.288s17.128-38.29 38.254-38.29c21.12.027 38.24 17.15 38.276 38.29h-.019z"/></svg>

<?xml version="1.0" encoding="utf-8"?>
<!-- Generator: Adobe Illustrator 22.0.1, SVG Export Plug-In . SVG Version: 6.00 Build 0)  -->
<svg version="1.1" id="Layer_1" xmlns="http://www.w3.org/2000/svg" xmlns:xlink="http://www.w3.org/1999/xlink" x="0px" y="0px"
	 viewBox="0 0 227 227" style="enable-background:new 0 0 227 227;" xml:space="preserve">
<style type="text/css">
	.st0{fill:#2657E7;}
</style>
<path class="st0" d="M54.9,117.2c-30.3,0-54.9,24.6-54.9,54.9c0,30.3,24.6,54.9,54.9,54.9c30.3,0,54.9-24.6,54.9-54.9
	C109.8,141.7,85.2,117.2,54.9,117.2C54.9,117.2,54.9,117.2,54.9,117.2z M54.9,210.4c-21.1,0-38.3-17.1-38.3-38.3
	s17.1-38.3,38.3-38.3c21.1,0,38.3,17.1,38.3,38.3C93.2,193.2,76.1,210.4,54.9,210.4z M172.1,0c-30.3,0-54.9,24.6-54.9,54.9
	s24.6,54.9,54.9,54.9c30.3,0,54.9-24.6,54.9-54.9C227,24.6,202.4,0,172.1,0z M172.1,93.2c-21.1,0-38.3-17.1-38.3-38.3
	c0-21.1,17.1-38.3,38.3-38.3c21.1,0,38.3,17.1,38.3,38.3C210.3,76.1,193.2,93.2,172.1,93.2z M54.9,0C28.8,0,6.3,18.4,1.1,44
	c-5.2,25.6,8.4,51.4,32.4,61.5c24.1,10.2,52,2,66.7-19.6c14.7-21.6,12.2-50.6-6-69.3h15.6V0H54.9z M93.2,54.9
	c0,21.1-17.1,38.3-38.3,38.3c-21.1,0-38.3-17.1-38.3-38.3s17.1-38.3,38.3-38.3C76.1,16.7,93.2,33.8,93.2,54.9L93.2,54.9z"/>
</svg>
